X:1
T:Jesu Redemptor Omnium, LM
T:Jesu Redemptor Omnium, LM
T:Public domain
Z:Public domain
%%score ( 1 2 ) ( 3 4 )
L:1/8
Q:1/4=115
M:4/4
K:G
V:1 treble nm="Staff"
V:2 treble 
V:3 bass nm="Jesu Redemptor Omnium LM"
V:4 bass 
V:1
 ([DG]2 [DF][DG] [DA]2 [DA]2 | [DB]2 A G [DA]4 | [B,G]2 [DF][DG] [EA]2 [DF]2 | [EG]2 F E D4) | %4
 [DG]2 [DF][DG] [DA]2 [DA]2 | [DB]2 [FA] [DG] [DA]4 | d2 [Fd][Fc] B3 [Ec]2 | [DB]2 A2 [B,G]8 |] %8
V:2
 x8 | x2 ^C2 x4 | x8 | x2 ^C2 D4 | x8 | x8 | D E x2 G F x3 | x2 D C x8 |] %8
V:3
 ([G,B,]2 [D,A,][G,B,] [F,A,]2 [D,F,]2 | G,2 [E,G,]2 [D,F,]4 | %2
 [E,G,]2 [B,,B,][B,,B,] [^C,A,]2 [D,A,]2 | [G,,B,]2 A, G, [D,F,]4) | %4
 ([B,,G,]2 [D,A,][G,B,] [F,A,]2 [D,F,]2 | G,2 [D,A,] [B,,B,] [D,F,]4 | %6
 [B,,G,]2 [D,A,][D,A,] G,2 [C,G,]2 x | [D,G,]2 [D,F,]2 [G,,G,]8) |] %8
V:4
 x8 | G,2 x6 | x8 | x2 A,,2 x4 | x8 | G,2 x6 | x4 E, D, x3 | x12 |] %8

